X:1
T:Gesammelte Motetten
T:Die Ehre des Herrn ist ewig
T:Psalm 104,31
T:Johann Heinrich Rolle
T:Die Ehre des Herrn ist ewig
T:CPDL - Creative Commons Attribution Non Commercial 3.0
T:CPDL - Creative Commons Attribution Non Commercial 3.0
T:CPDL - Creative Commons Attribution Non Commercial 3.0
T:CPDL - Creative Commons Attribution Non Commercial 3.0
T:CPDL - Creative Commons Attribution Non Commercial 3.0
T:CPDL - Creative Commons Attribution Non Commercial 3.0
T:CPDL - Creative Commons Attribution Non Commercial 3.0
T:CPDL - Creative Commons Attribution Non Commercial 3.0
C:Johann Heinrich Rolle
Z:CPDL - Creative Commons Attribution Non Commercial 3.0
%%score [ 1 2 3 4 ]
L:1/8
Q:1/4=105
M:4/4
K:D
V:1 treble nm="Sopran"
V:2 treble nm="Alt"
V:3 treble-8 nm="Tenor"
V:4 bass nm="Bass"
V:1
"^Allegro moderato" A2 | d2 d>d d2 e2 | f2 e2 z2 g2 | f2 e>e d2 c2 | d2 A2 z2 g2 | f2 e>e d2 c2 | %6
w: Die|Eh- re des Herrn ist|e- wig, die|Eh- re des Herrn ist|e- wig, die|Eh- re des Herrn ist|
 d2 A2 z2 A2 | A2 FA A2 dA | A2 FA A2 dA | A2 dc d2 f2 | f2 e2 z2 e2 | e2 ce e2 fe | e2 ce e2 fe | %13
w: e- wig, der|Herr hat * Wohl- ge- *|fal- len an sei- nen *|Wer- ken, an sei- nen|Wer- ken, der|Herr hat * Wohl- ge- *|fal- len an sei- nen *|
 e2 ce e2 g2 | (f/g/f/e/ f4 fe | d/e/d/c/ d4 dc | B/c/B/A/ B4 BA | ^GA)AB Bc cd | deef f^g ga | %19
w: Wer- ken, an sei- nen|Wer- * * * * * *|||* * ken, hat Wohl- * ge- *|fa- * len, hat Wohl- * ge- *|
 a8 | A4 z2 A2 | e2 fe/d/ (c2 B2) | A2 d2 fa fd | (c4 B4) | !fermata!A4 z2"^Solo" E2 | E4 E2 E2 | %26
w: fal-|len an|sei- nen _ _ Wer- *|ken, an sei- * nen *|Wer- *|ken. Er|schau- et die|
 E4 E4 | E8- | E4 z2"^Tutti" E2 | d>d c2 z2 E2 | d>d c2 z4 | z4"^Solo" F4 | F4 F2 F2 | F4 F4 | %34
w: Er- de|an,|_ so|be- bet sie, so|be- bet sie,|er|rӮh- ret die|Ber- ge|
 F4 z2"^Tutti" F2 | Bd/c/ B/c/B/A/ GB/A/ G/A/G/F/ | EGBe d2 c2 | B2 z!p! D | DD/D/ DD | %39
w: an, so|rau- * * * * * * * * * * * * *|* chen sie, so rau- chen|sie, er|rӮh- ret die Ber- ge|
 D2 z!f! d .c2 .^A2 | BBBB B2 !fermata!z2 | d2 d>d d2 e2 | f2 e2 z2 g2 | f2 e>e d2 c2 | d4 z2 g2 | %45
w: an, so rau- chen|sie, so rau- chen sie.|Ich will dem Herrn lob-|sin- gen, lob-|sin- gen mein Le- ben|lang, lob-|
 f2 e>e d2 c2 | d4 z2 A2 | AFFA AddA | AFFA AddA | A2 (3B=cd (d2 c2) | B4 z2 B2 | %51
w: sin- gen mein Le- ben|lang und|mei- * nen Gott lo- * ben, und|mei- * nen Gott lo- * ben so|lang' ich _ _ hie _|bin, so|
 B2 (3^cde (e2 d2) | !fermata!c4 z4 ||[M:3/8][Q:1/4=90] z3 | z3 | D D/E/ F/G/ | ABc | d3 | cde | %59
w: lang' ich _ _ hie _|bin.|||Lo- be * den *|Herrn, mei- ne|See-|le, mei- ne|
 f3 | e2 z | f d/e/ f/d/ | g>ag | e c/d/ e/c/ | f>gf | d B/c/ d/B/ | ed/c/ B/A/ | d cB | A2 z | %69
w: See-|le!|Hal- le- * lu- *|ja, _ _|hal- le- * lu- *|ja, _ _|hal- le- * lu- *|ja, _ _ hal- *|le- lu- *|ja!|
 z3 | A A/B/ c/d/ | ef^g | a3 | ^g2 g | f3 | e3 | d3 | c A/B/ c/A/ | d>ed | d B/c/ d/B/ | e>fe | %81
w: |Lo- be * den *|Herrn, mei- ne|See-|le! Hal-|le-|lu-|ja,|hal- le- * lu- *|ja, _ _|hal- le- * lu- *|ja, _ _|
 e c/d/ e/c/ | f2 f | e2 e | d3- | d3- | d3- | d3 | z3 | z3 | z3 | D D/E/ F/G/ | ABc | d3 | A3 | %95
w: hal- le- * lu- *|ja, hal-|le- lu-|ja!|_||||||Lo- be * den *|Herrn, mei- ne|See-|le!|
 dec | d2 z | fge | f2 z | dec | d2 z | d3 | d3 | d3 | !fermata!d2 z |] %105
w: Hal- le- lu-|ja,|hal- le- lu-|ja,|hal- le- lu-|ja,|hal-|le-|lu-|ja!|
V:2
 F2 | A2 A>A A2 A2 | A2 A2 A4- | A4 A2 A2 | A2 A2 z2 A2 | A2 c>c d2 G2 | F>E F2 z2 F2 | %7
w: Die|Eh- re des Herrn ist|e- wig, e-|* wig, ist|e- wig, die|Eh- re des Herrn ist|e- * wig, der|
 F2 DF F2 F2 | F2 DF F2 F2 | F2 FG A2 A2 | A2 A2 z2 A2 | A2 A2 A2 A2 | A2 AA A2 A2 | A2 AA A2 A2 | %14
w: Herr hat * Wohl- ge-|fal- len an sei- nen|Wer- ken, an sei- nen|Wer- ken, der|Herr hat Wohl- ge-|fal- len an sei- nen|Wer- ken, an sei- nen|
 A2 A2 z2 AA | B2 B2 z2 FF | B2 B2 z BBA | ^GFFG GA AB | Bccd dB BA | A8 | A4 z2 A2 | %21
w: Wer- ken, Wohl- ge-|fal- len, Wohl- ge-|fal- len, an sei- nen|Wer- * ken, hat * * * *||||
 A2 A2 (A2 ^G2) | A2 A2 A2 A2 | (A4 ^G4) | !fermata!A4 z2 C2 | C4 C2 C2 | B,4 B,4 | C8- | %28
w: |||||||
 C4 z2 E2 | B>B A2 z2 E2 | B>B A2 z4 | z4 D4 | D4 D2 D2 | C4 C4 | D4 z2 F2 | %35
w: |||||||
 Bd/c/ B/c/B/A/ GB/A/ G/A/G/F/ | EGGB B2 ^A2 | B2 z!p! D | DD/D/ DD | D2 z!f! B .G2 .F2 | %40
w: |||||
 FFFF F2 !fermata!z2 | A2 A>A A2 A2 | A2 A>A A4- | A6 G2 | F4 z2 A2 | A2 c>c d2 G2 | F4 z2 F2 | %47
w: ||* * mein Le-|* ben|lang, *|||
 FDDF FAFF | FDDF FAFF | F2 (3GAB (B2 A2) | G4 z2 A2 | ^G2 (3ABc (c2 B2) | !fermata!A4 z4 || %53
w: ||||||
[M:3/8] A3 | G2 G | F2 z | z3 | D D/E/ F/G/ | ABc | d3 | c2 z | A F/G/ A/F/ | B>=cB | G E/F/ G/E/ | %64
w: Lo-|be den|Herrn,||lo- be * den *|Herrn, mei- ne|See-|le!||||
 A>BA | FBB | A2 A | B A^G | A2 z | z3 | AAA | ^GAB | c3 | B2 B | cBB | BA z | z3 | A A/B/ c/A/ | %78
w: ||||||Lo- be den|Herrn, mei- ne|See-|le! Hal-|le- * lu-|ja, _||hal- le- * lu- *|
 B>cB | B ^G/A/ B/G/ | c>dc | c A/B/ c/A/ | A2 A | G2 G | F/F/ F/G/ A/F/ | !>!B>cB | B G/A/ B/G/ | %87
w: ja, _ _|hal- le- * lu- *|ja, _ _|hal- le- * lu- *|ja, hal-|le- lu-|ja, hal- le- * lu- *|ja, _ _|hal- le- * lu- *|
 !>!A>BA | A F/G/ A/F/ | !>!G>AG | GFE | D D/E/ F/G/ | ABc | d3 | A3 | ABG | F2 z | BBA | A2 z | %99
w: ja, _ _|hal- le- * lu- *|ja! _ _|_ _ _|Lo- be * den *|Herrn, mei- ne|||||||
 BBA | A2 z | A3 | A3 | A3 | !fermata!A2 z |] %105
w: ||||||
V:3
 d2 | f2 f>f d2 c2 | d2 c2 z2 e2 | d2 g>g f2 e2 | f2 d2 z2 c2 | d2 g>g f2 e2 | d>c d2 z2 d2 | %7
w: Die|Eh- re des Herrn ist|e- wig, die|Eh- re des Herrn ist|e- wig, die|||
 d2 d2 d2 d2 | d2 dd d2 d2 | d2 de f2 d2 | d2 c2 z2 c2 | c2 Ac c2 dc | c2 Ac c2 dc | c2 Ac c2 e2 | %14
w: |||||||
 d2 d2 z2 de | f2 f2 z2 Bc | d2 d2 z dd^d | e4 E4 | z4 z2 e2 | ef fe ed dc | cddc cB BA | %21
w: ||* * an sei- nen|Wer- ken,|der|Herr * hat * Wohl- * ge- *|fal- * len an sei- * nen, *|
 A3 f (e2 d2) | c2 d2 d2 d2 | (e4 d4) | !fermata!c4 z2 A2 | A4 A2 A2 | ^G4 G4 | A8- | A4 z2 c2 | %29
w: sei- nen Wer- *|ken, an sei- nen|Wer- *|ken. Er|schau- et die|Er- de|an,|_ so|
 e>e e2 z2 c2 | e>e e2 z4 | z4 B4 | B4 B2 B2 | ^A4 A4 | B4 z2 F2 | Bd/c/ B/c/B/A/ GB/A/ G/A/G/F/ | %36
w: be- bet sie, so|be- bet sie,|er|rӮh- ret die|Ber- ge|an, so|rau- * * * * * * * * * * * * *|
 Eeeg f2 e2 | d2 z!p! B | BB/B/ BB | B2 z!f! f .e2 .c2 | dddd d2 !fermata!z2 | f2 f>f d2 c2 | %42
w: * chen sie, so rau- chen|sie, er|rӮh- ret die Ber- ge|an, so rau- chen|sie, so rau- chen sie.|Ich will dem Herrn lob-|
 d2 c2 z2 e2 | d2 g>g f2 e2 | d4 z2 c2 | d2 g>g f2 e2 | d4 z2 d2 | d2 dd d2 dd | d2 dd d2 dd | %49
w: sin- gen, lob-|sin- gen mein Le- ben|lang, lob-|sin- gen mein Le- ben|lang und|mei- nen Gott lo- ben, und|mei- nen Gott lo- ben so|
 d2 d2 d4 | d4 z2 ^d2 | e2 e2 e4 | !fermata!e4 z4 ||[M:3/8] f3 | e2 e | d2 z | z3 | z3 | z3 | z3 | %60
w: lang' ich hie|bin, so|lang' ich hie|bin.|Lo-|be den|Herrn|||||
 z3 | ddd | d2 z | ddd | d2 z | z3 | z3 | z3 | A A/B/ c/d/ | ef^g | a2 A | e3 | e3- | e3- | edd | %75
w: |Hal- le- lu-|ja,|hal- le- lu-|ja!||||Lo- be * den *|Herrn mei- ne|See- le!|Hal-|le-||* * lu-|
 dcc | cBB | A3 | AAA | A2 z | AAA | A2 z | z3 | z3 | d d/e/ f/d/ | !>!g>ag | g e/f/ g/e/ | %87
w: ja, _ hal-|le- * lu-|ja,|hal- le- lu-|ja,|hal- le- lu-|ja,|||hal- le- * lu\- *|||
 !>!f>gf | f d/e/ f/d/ | !>!e>fe | edc | D D/E/ F/G/ | ABc | d3 | A3 | fee | d2 z | dec | d2 z | %99
w: ||||||See-|le!|Hal- le- lu-|ja,|hal- le- lu-|ja,|
 fge | f2 z | f3 | f3 | f3 | !fermata!f2 z |] %105
w: hal- le- lu-|ja,|hal-|le-|lu-|ja!|
V:4
 D,2 | D2 D,>D, F,2 A,2 | D2 A,2 z2 C2 | D2 C>C D2 A,2 | D,2 F,>G, A,4- | A,4 A,2 A,2 | D4 D,2 z2 | %7
w: ||||e- wig, * e-|* wig, ist|e- wig,|
 z8 | z8 | z4 z2 D,2 | A,^G, A,G, A,G, A,G, | A,2 A,,2 z4 | z2 A,2 A,2 A,2 | A,2 A,,2 z2 A,2 | %14
w: ||der|Herr _ hat _ Wohl- * ge- *|fal- len|an sei- nen|Wer- ken, der|
 DC DC DC DC | B,^A,B,A, B,A, B,=A, | ^G,F,G,F, G,F, G,F, | E,4 E,4 | z4 z2 D2 | CD DC CB, B,A, | %20
w: Herr * hat * Wohl- * ge- *|fal- * len, hat Wohl- * ge- *|fal- * len an sei- * nen *|Wer- ken,|||
 A,F,F,E, E,D, D,C, | C,2 D,2 E,4 | F,2 F,2 F,2 F,2 | E,8 | !fermata!A,,4 z2 A,,2 | %25
w: |||||
 A,,4 A,,2 A,,2 | E,4 E,4 | A,,8- | A,,4 z2 A,2 | ^G,>G, A,2 z2 A,2 | ^G,>G, A,2 z4 | z4 B,,4 | %32
w: |||||||
 B,,4 B,,2 B,,2 | F,4 F,4 | B,,4 z2 F,2 | B,D/C/ B,/C/B,/A,/ G,B,/A,/ G,/A,/G,/F,/ | %36
w: ||||
 E,E,E,E, F,2 F,2 | G,2 z!p! G, | G,G,/G,/ G,G, | G,2 z!f! D, .E,2 .F,2 | %40
w: ||||
 B,,B,F,D, B,,2 !fermata!z2 | D,2 D,>D, F,2 A,2 | D2 A,2 z2 C2 | D2 C>C D2 A,2 | D,2 F,>G, A,4- | %45
w: ||* * lob-|sin- gen mein Le- ben|lang, mein * Le-|
 A,6 A,2 | D,4 z4 | z8 | z8 | z4 z2 D,2 | G,F,G,F, G,F,G,F, | E,2 E,2 E,4 | !fermata!A,4 z4 || %53
w: * ben|lang,|||und|mei- * nen Gott lo- * ben, so|lang' ich hie|bin.|
[M:3/8] D, D,/E,/ F,/G,/ | A,B,C | D3 | C3 | B,3 | A,2 z | D, D,/E,/ F,/G,/ | A,B,C | D2 D, | DDD | %63
w: Lo- be * den *|Herrn, mei- ne|See-|le,|lo-|be,|lo- be * den *|Herrn, mei- ne|See- le!|Hal- le- lu-|
 D2 z | DDD | D3 | C3 | B, E,2 | A,3 | ^G,3 | F,2 F, | E,2 z | A, A,,/B,,/ C,/D,/ | E,F,^G, | %74
w: ja,|hal- le- lu-|ja,|hal-|le- lu-|ja,|hal-|le- lu-|ja!|Lo- be * den *|Herrn, mei- ne|
 A,B,/A,/^G,/F,/ | ^G,A,/G,/F,/E,/ | F,/E,/F,^G, | A,2 z | z3 | z3 | z3 | z3 | D, D,/E,/ F,/G,/ | %83
w: See- * * * *|||le!|||||Lo- be * den *|
 A,B,C | D2 D, | DDD | D2 z | DDD | D2 z | A,A,A, | A,2 z | D, D,/E,/ F,/G,/ | A,B,C | D3 | A,3 | %95
w: Herrn, mei- ne|See- le!|Hal- le- lu-|ja,|hal- le- lu-|ja,|hal- le- lu-|ja!|||||
 F,G,A, | B,2 z | B,G,A, | D,2 z | B,G,A, | D,2 z | D3 | A,3 | F,3 | !fermata!D,2 z |] %105
w: ||||||||||

